sources/design/Outline/4.svg

<svg:svg xmlns:cc="http://creativecommons.org/ns#" xmlns:dc="http://purl.org/dc/elements/1.1/" xmlns:inkscape="http://www.inkscape.org/namespaces/inkscape" xmlns:rdf="http://www.w3.org/1999/02/22-rdf-syntax-ns#" xmlns:sodipodi="http://sodipodi.sourceforge.net/DTD/sodipodi-0.dtd" xmlns:svg="http://www.w3.org/2000/svg" xml:space="preserve" width="1000" height="1000" version="1.1" style="clip-rule:evenodd;fill-rule:evenodd;image-rendering:optimizeQuality;shape-rendering:geometricPrecision;text-rendering:geometricPrecision" viewBox="0 0 1000 1000" id="svg10" sodipodi:docname="4.svg" inkscape:version="1.1.1 (3bf5ae0d25, 2021-09-20)"><svg:metadata id="metadata14"><rdf:RDF><cc:Work rdf:about=""><dc:format>image/svg+xml</dc:format><dc:type rdf:resource="http://purl.org/dc/dcmitype/StillImage" /></cc:Work></rdf:RDF></svg:metadata><sodipodi:namedview pagecolor="#ffffff" bordercolor="#666666" borderopacity="1" objecttolerance="10" gridtolerance="10" guidetolerance="10" inkscape:pageopacity="0" inkscape:pageshadow="2" inkscape:window-width="1920" inkscape:window-height="1009" id="namedview12" showgrid="false" inkscape:zoom="1.2005384" inkscape:cx="169.50728" inkscape:cy="688.8576" inkscape:window-x="1920" inkscape:window-y="0" inkscape:window-maximized="1" inkscape:current-layer="svg10" showguides="true" inkscape:guide-bbox="true" inkscape:document-rotation="0" inkscape:pagecheckerboard="0"><sodipodi:guide position="0,1000" orientation="0,1" id="guide16" inkscape:label="" inkscape:locked="true" inkscape:color="rgb(0,0,255)" /><sodipodi:guide position="1763.3122,2036.1693" orientation="1000,0" id="guide18" /><sodipodi:guide position="0,200" orientation="0,1" id="guide20" inkscape:label="base" inkscape:locked="true" inkscape:color="rgb(0,0,255)" /><inkscape:grid type="xygrid" id="grid24" originx="-473.37552" originy="-489.69235" /><sodipodi:guide position="0,0" orientation="0,1" id="guide34" inkscape:label="bottom" inkscape:locked="true" inkscape:color="rgb(0,0,255)" /><sodipodi:guide position="225.05109,1693.3186" orientation="0,1" id="guide44" inkscape:label="" inkscape:locked="false" inkscape:color="rgb(0,0,255)" /><sodipodi:guide position="0,900" orientation="0,1" id="guide46" inkscape:label="" inkscape:locked="true" inkscape:color="rgb(0,0,255)" /><sodipodi:guide position="496.09964,742.05581" orientation="-1,0" id="guide841" inkscape:label="width" inkscape:locked="false" inkscape:color="rgb(0,0,255)" /></sodipodi:namedview>
 <svg:defs id="defs4"><inkscape:path-effect effect="fillet_chamfer" id="path-effect3523" is_visible="true" lpeversion="1" satellites_param="F,0,1,1,0,7.493118,0,1 @ F,0,0,1,0,0,0,1 @ F,0,1,1,0,7.493118,0,1 @ F,0,0,1,0,7.493118,0,1 @ F,0,0,1,0,0,0,1 @ F,0,1,1,0,7.493118,0,1 | F,0,1,1,0,7.493118,0,1 @ F,0,1,1,0,7.493118,0,1 @ F,0,0,1,0,0,0,1 @ F,0,0,1,0,0,0,1 @ F,0,1,1,0,7.493118,0,1 @ F,0,1,1,0,7.493118,0,1 @ F,0,0,1,0,0,0,1 @ F,0,0,1,0,0,0,1 @ F,0,1,1,0,7.493118,0,1 @ F,0,1,1,0,7.493118,0,1 @ F,0,0,1,0,0,0,1 @ F,0,0,1,0,0,0,1 @ F,0,0,1,0,0,0,1 @ F,0,0,1,0,0,0,1 @ F,0,0,1,0,0,0,1" unit="px" method="auto" mode="F" radius="0" chamfer_steps="1" flexible="false" use_knot_distance="true" apply_no_radius="true" apply_with_radius="true" only_selected="false" hide_knots="false" /><inkscape:path-effect effect="fillet_chamfer" id="path-effect855" is_visible="true" lpeversion="1" satellites_param="F,0,0,1,0,12.269975,0,1 @ F,0,0,1,0,0,0,1 @ F,0,0,1,0,9.285402,0,1 @ F,0,0,1,0,18.241475,0,1 @ F,0,0,1,0,0,0,1 @ F,0,0,1,0,18.241475,0,1 | F,0,0,1,0,18.241475,0,1 @ F,0,0,1,0,18.241475,0,1 @ F,0,0,1,0,0,0,1 @ F,0,0,1,0,0,0,1 @ F,0,0,1,0,13.43571,0,1 @ F,0,0,1,0,18.570798,0,1 @ F,0,0,1,0,0,0,1 @ F,0,0,1,0,0,0,1 @ F,0,0,1,0,18.241475,0,1 @ F,0,0,1,0,18.241475,0,1 @ F,0,0,1,0,0,0,1 @ F,0,0,1,0,0,0,1 @ F,0,0,1,0,0,0,1 @ F,0,0,1,0,0,0,1 @ F,0,0,1,0,0,0,1" unit="px" method="auto" mode="F" radius="0" chamfer_steps="1" flexible="false" use_knot_distance="true" apply_no_radius="true" apply_with_radius="true" only_selected="true" hide_knots="false" /><inkscape:path-effect effect="fillet_chamfer" id="path-effect854" is_visible="true" lpeversion="1" satellites_param="F,0,0,1,0,27.900203,0,1 @ F,0,0,1,0,0,0,1 @ F,0,0,1,0,27.900203,0,1 @ F,0,0,1,0,27.900203,0,1 @ F,0,0,1,0,0,0,1 @ F,0,1,1,0,23.18886,0,1 | F,0,0,1,0,27.900203,0,1 @ F,0,0,1,0,27.900203,0,1 @ F,0,0,1,0,0,0,1 @ F,0,0,1,0,0,0,1 @ F,0,0,1,0,27.900203,0,1 @ F,0,0,1,0,0,0,1 @ F,0,0,1,0,0,0,1 @ F,0,0,1,0,27.900203,0,1 @ F,0,0,1,0,27.900203,0,1 @ F,0,0,1,0,0,0,1 @ F,0,0,1,0,0,0,1 @ F,0,0,1,0,0,0,1 @ F,0,0,1,0,0,0,1" unit="px" method="auto" mode="F" radius="0" chamfer_steps="1" flexible="false" use_knot_distance="true" apply_no_radius="true" apply_with_radius="true" only_selected="true" hide_knots="false" /><inkscape:path-effect effect="fillet_chamfer" id="path-effect853" is_visible="true" lpeversion="1" satellites_param="F,0,0,1,0,31.950633,0,1 @ F,0,0,1,0,28.948477,0,1 @ F,0,0,1,0,0,0,1 @ F,0,0,1,0,0,0,1 @ F,0,0,1,0,49.900276,0,1 @ F,0,0,1,0,0,0,1 @ F,0,0,1,0,0,0,1 @ F,0,0,1,0,0,0,1 @ F,0,0,1,0,16.584156,0,1 @ F,0,0,1,0,44.403538,0,1 @ F,0,0,1,0,0,0,1 @ F,0,0,1,0,0,0,1 @ F,0,0,1,0,0,0,1 @ F,0,0,1,0,0,0,1 @ F,0,0,1,0,0,0,1 @ F,0,0,1,0,42.596257,0,1 @ F,0,0,1,0,30.185399,0,1 @ F,0,0,1,0,0,0,1" unit="px" method="auto" mode="F" radius="0" chamfer_steps="1" flexible="false" use_knot_distance="true" apply_no_radius="true" apply_with_radius="true" only_selected="true" hide_knots="true" /><inkscape:path-effect effect="spiro" id="path-effect852" is_visible="true" lpeversion="1" /><inkscape:path-effect effect="spiro" id="path-effect850" is_visible="true" lpeversion="1" /><inkscape:path-effect effect="spiro" id="path-effect851" is_visible="true" lpeversion="1" />
  <svg:style type="text/css" id="style2">
   
    .fil0 {fill:#EF7F1A;fill-rule:nonzero}
   
  </svg:style>
 <inkscape:path-effect effect="spiro" id="path-effect1214" is_visible="true" lpeversion="1" /><inkscape:path-effect effect="spiro" id="path-effect1195" is_visible="true" lpeversion="1" /><inkscape:path-effect effect="spiro" id="path-effect992" is_visible="true" lpeversion="1" /><inkscape:path-effect effect="spiro" id="path-effect1060" is_visible="true" lpeversion="1" /><inkscape:path-effect effect="spiro" id="path-effect1047" is_visible="true" lpeversion="1" /><inkscape:path-effect effect="spiro" id="path-effect1085" is_visible="true" lpeversion="1" /><inkscape:path-effect effect="spiro" id="path-effect1286" is_visible="true" lpeversion="1" /><inkscape:path-effect effect="spiro" id="path-effect1305" is_visible="true" lpeversion="1" /></svg:defs>
 
<svg:g id="path849"><svg:path style="color:#000000;clip-rule:nonzero;fill:#1a5fb4;fill-rule:nonzero;stroke-linecap:round;stroke-linejoin:round;-inkscape-stroke:none;paint-order:fill stroke markers;shape-rendering:auto" d="M 283.29297,74.205078 C 273.04121,74.631358 262.9446,78.822315 256.47266,86.646484 C 207.23482,146.17189 160.25726,207.56479 115.67188,270.65039 C 78.927657,322.64122 43.264014,376.52317 13.402344,434.48242 C 0.2557884399999999,459.99889 -11.673068,486.13982 -22.332031,512.79102 C -28.187931,527.43285 -27.955931,535.38676 -21.833984,549.63086 L 14.322265999999999,633.75391 C 22.35646,652.44728 43.573788,661.19949 62.306641,654.22461 C 86.652114,645.15996 111.98291,638.68187 137.6875,634.94922 C 164.25892,631.09069 191.88129,630.4121799999999 220.21483999999998,630.60547 C 216.04868,683.15285 209.37636999999998,735.50256 200.21483999999998,787.4101599999999 C 198.51364999999998,797.0488099999999 201.00790999999998,809.4935999999999 209.18358999999998,818.1621099999999 C 217.35927999999998,826.8306199999998 229.70272999999997,830.0626199999999 239.44921999999997,828.8945299999999 L 352.5332,815.3418 C 372.57879,812.93939 388.54782,789.38032 383.56641,769.96094 C 371.82631000000003,724.19375 364.1322,677.3735700000001 360.5625,630.2519500000001 C 375.21764,629.29911 389.95024,627.9891400000001 404.83203000000003,625.7148400000001 C 428.53686000000005,622.0921800000001 451.91449,616.4290700000001 474.64844000000005,608.8085900000001 C 492.71572000000003,602.7524000000001 500.4929900000001,592.79902 502.91797,574.4082000000001 L 517.35352,464.92383000000007 C 518.49345,456.27869000000004 516.52766,441.32921000000005 503.64844,432.24023000000005 C 490.76922,423.15125000000006 476.21329,426.26597000000004 468.45898,430.15625000000006 C 435.0665,446.9090100000001 400.14454,460.61433000000005 364.32421999999997,471.28906000000006 C 369.22162999999995,431.31712000000005 377.02685999999994,391.70000000000005 387.82226999999995,352.9179700000001 C 390.38780999999994,343.7013600000001 389.33511999999996,330.5586800000001 381.2695299999999,320.82812000000007 C 373.20393999999993,311.0975700000001 360.34903999999995,307.5951800000001 350.7695299999999,308.4707000000001 L 256.9101599999999,317.04883000000007 C 273.2982099999999,300.38261000000006 290.7291299999999,284.7786000000001 309.1113299999999,270.42383000000007 C 332.2109499999999,252.38520000000005 356.8255599999999,236.26855000000006 382.5956999999999,222.30469000000005 C 391.1604899999999,217.66375000000005 399.26974999999993,208.12706000000006 401.0820299999999,196.46289000000004 C 402.8943099999999,184.79872000000003 397.97885999999994,173.07321000000005 391.0996099999999,166.05273000000005 L 311.04492,84.355469 C 303.95236,77.11729199999999 293.54472,73.778798 283.29296999999997,74.205078 L 283.29297,74.205078 M 286.42383,144.95703 L 326.32031,185.67187 C 307.61319000000003,197.1682 289.49271,209.61798000000002 272.18359,223.13477 C 217.83864999999997,265.57305 171.25385999999997,317.43044 134.20897999999997,375.27734 C 111.23266999999997,411.15569 92.07106299999997,449.38901999999996 76.75195299999997,489.10742 C 69.63883099999997,487.92109 62.56698299999997,486.54112 55.49999999999997,485.11328 C 59.19483099999997,477.37030999999996 62.80906099999997,469.58725999999996 66.73828099999997,461.96094 C 94.61748,407.84952 128.65203,356.24242 164.66992,305.2793 C 203.40765,250.46777 244.09158,197.04282 286.42383,144.95703 M 219.40039000000002,359.49609 C 223.28098000000003,405.04166999999995 225.23788000000002,450.74784999999997 225.33398000000003,496.45898 C 196.42584000000002,498.40641 167.38534000000004,498.2983 138.47266000000002,496.32617 C 151.32342000000003,465.49685999999997 166.73958000000002,435.73734 184.73633,407.63477 C 195.40798,390.97059 207.04488,374.9399 219.40039000000002,359.49609 M 321.23047,371.41992 C 312.35436000000004,409.29461 306.01172,447.74982 302.28711000000004,486.4668 C 296.64504000000005,487.54958 291.00444000000005,488.63948 285.33594000000005,489.56836 C 285.10495000000003,451.38140999999996 283.46774000000005,413.21349 280.68750000000006,375.12694999999997 L 321.23047,371.41992 M 451.71484000000004,503.74805 L 444.92578000000003,555.23828 C 428.81985000000003,560.0847200000001 412.38899000000004,563.86219 395.76758,566.40234 C 383.52755,568.27291 371.01557,569.3328 358.37695,570.07422 C 358.36795,558.3899299999999 358.60902000000004,546.70879 359.10937,535.0332 C 390.65771,526.76018 421.62443,516.33353 451.71484,503.74805 L 451.71484000000004,503.74805 M 35.412109000000044,530.31445 C 35.41480900000004,530.35865 35.329619000000044,530.62063 35.32421900000004,530.66602 L 35.29296900000004,530.59372 C 35.331099000000044,530.49992 35.37394900000004,530.40818 35.412109000000044,530.3144199999999 L 35.412109000000044,530.31445 M 298.57031000000006,548.13086 C 298.38138000000004,555.78216 298.3664600000001,563.43533 298.38086000000004,571.08984 C 293.60387000000003,571.01864 288.74351,570.90577 283.92383000000007,570.80664 C 284.20767000000006,563.95392 284.38056000000006,557.09793 284.5820300000001,550.24219 C 287.9380300000001,549.7447000000001 291.3133400000001,549.39256 294.6621100000001,548.8457000000001 C 295.9694000000001,548.6322200000001 297.2643200000001,548.3518100000001 298.5703100000001,548.1308600000001 L 298.57031000000006,548.13086 M 117.63281000000006,554.80273 C 153.10136000000006,558.08025 188.79352000000006,558.74249 224.35156000000006,556.59961 C 224.19889000000006,561.04904 224.08121000000006,565.49918 223.89258000000007,569.94727 C 192.89203000000006,569.88077 161.25827000000007,570.89562 129.06641000000008,575.57031 C 123.05000000000008,576.4439799999999 117.06951000000008,577.54018 111.09766000000008,578.6699199999999 C 113.09070000000007,570.6659599999999 115.29534000000008,562.7152699999999 117.63281000000008,554.8027299999999 L 117.63281000000006,554.80273 M 280.2929700000001,631.56055 C 287.0277000000001,631.6853100000001 293.7289300000001,631.8332 300.5332000000001,631.8828100000001 C 303.6249900000001,674.6092500000001 309.8711100000001,717.0992100000001 319.2304700000001,758.9043 L 264.6992200000001,765.44141 C 271.6602400000001,721.0422100000001 276.8402700000001,676.36835 280.2929700000001,631.56055" id="path8270" /></svg:g></svg:svg>

<svg:svg xmlns:cc="http://creativecommons.org/ns#" xmlns:dc="http://purl.org/dc/elements/1.1/" xmlns:inkscape="http://www.inkscape.org/namespaces/inkscape" xmlns:rdf="http://www.w3.org/1999/02/22-rdf-syntax-ns#" xmlns:sodipodi="http://sodipodi.sourceforge.net/DTD/sodipodi-0.dtd" xmlns:svg="http://www.w3.org/2000/svg" xml:space="preserve" width="1000" height="1000" version="1.1" style="clip-rule:evenodd;fill-rule:evenodd;image-rendering:optimizeQuality;shape-rendering:geometricPrecision;text-rendering:geometricPrecision" viewBox="0 0 1000 1000" id="svg10" sodipodi:docname="4.svg" inkscape:version="1.1.1 (3bf5ae0d25, 2021-09-20)"><svg:metadata id="metadata14"><rdf:RDF><cc:Work rdf:about=""><dc:format>image/svg+xml</dc:format><dc:type rdf:resource="http://purl.org/dc/dcmitype/StillImage" /></cc:Work></rdf:RDF></svg:metadata><sodipodi:namedview pagecolor="#ffffff" bordercolor="#666666" borderopacity="1" objecttolerance="10" gridtolerance="10" guidetolerance="10" inkscape:pageopacity="0" inkscape:pageshadow="2" inkscape:window-width="1920" inkscape:window-height="1009" id="namedview12" showgrid="false" inkscape:zoom="1.2005384" inkscape:cx="169.50728" inkscape:cy="688.8576" inkscape:window-x="1920" inkscape:window-y="0" inkscape:window-maximized="1" inkscape:current-layer="svg10" showguides="true" inkscape:guide-bbox="true" inkscape:document-rotation="0" inkscape:pagecheckerboard="0"><sodipodi:guide position="0,1000" orientation="0,1" id="guide16" inkscape:label="" inkscape:locked="true" inkscape:color="rgb(0,0,255)" /><sodipodi:guide position="1763.3122,2036.1693" orientation="1000,0" id="guide18" /><sodipodi:guide position="0,200" orientation="0,1" id="guide20" inkscape:label="base" inkscape:locked="true" inkscape:color="rgb(0,0,255)" /><inkscape:grid type="xygrid" id="grid24" originx="-473.37552" originy="-489.69235" /><sodipodi:guide position="0,0" orientation="0,1" id="guide34" inkscape:label="bottom" inkscape:locked="true" inkscape:color="rgb(0,0,255)" /><sodipodi:guide position="225.05109,1693.3186" orientation="0,1" id="guide44" inkscape:label="" inkscape:locked="false" inkscape:color="rgb(0,0,255)" /><sodipodi:guide position="0,900" orientation="0,1" id="guide46" inkscape:label="" inkscape:locked="true" inkscape:color="rgb(0,0,255)" /><sodipodi:guide position="496.09964,742.05581" orientation="-1,0" id="guide841" inkscape:label="width" inkscape:locked="false" inkscape:color="rgb(0,0,255)" /></sodipodi:namedview>
 <svg:defs id="defs4"><inkscape:path-effect effect="fillet_chamfer" id="path-effect3523" is_visible="true" lpeversion="1" satellites_param="F,0,1,1,0,7.493118,0,1 @ F,0,0,1,0,0,0,1 @ F,0,1,1,0,7.493118,0,1 @ F,0,0,1,0,7.493118,0,1 @ F,0,0,1,0,0,0,1 @ F,0,1,1,0,7.493118,0,1 | F,0,1,1,0,7.493118,0,1 @ F,0,1,1,0,7.493118,0,1 @ F,0,0,1,0,0,0,1 @ F,0,0,1,0,0,0,1 @ F,0,1,1,0,7.493118,0,1 @ F,0,1,1,0,7.493118,0,1 @ F,0,0,1,0,0,0,1 @ F,0,0,1,0,0,0,1 @ F,0,1,1,0,7.493118,0,1 @ F,0,1,1,0,7.493118,0,1 @ F,0,0,1,0,0,0,1 @ F,0,0,1,0,0,0,1 @ F,0,0,1,0,0,0,1 @ F,0,0,1,0,0,0,1 @ F,0,0,1,0,0,0,1" unit="px" method="auto" mode="F" radius="0" chamfer_steps="1" flexible="false" use_knot_distance="true" apply_no_radius="true" apply_with_radius="true" only_selected="false" hide_knots="false" /><inkscape:path-effect effect="fillet_chamfer" id="path-effect855" is_visible="true" lpeversion="1" satellites_param="F,0,0,1,0,12.269975,0,1 @ F,0,0,1,0,0,0,1 @ F,0,0,1,0,9.285402,0,1 @ F,0,0,1,0,18.241475,0,1 @ F,0,0,1,0,0,0,1 @ F,0,0,1,0,18.241475,0,1 | F,0,0,1,0,18.241475,0,1 @ F,0,0,1,0,18.241475,0,1 @ F,0,0,1,0,0,0,1 @ F,0,0,1,0,0,0,1 @ F,0,0,1,0,13.43571,0,1 @ F,0,0,1,0,18.570798,0,1 @ F,0,0,1,0,0,0,1 @ F,0,0,1,0,0,0,1 @ F,0,0,1,0,18.241475,0,1 @ F,0,0,1,0,18.241475,0,1 @ F,0,0,1,0,0,0,1 @ F,0,0,1,0,0,0,1 @ F,0,0,1,0,0,0,1 @ F,0,0,1,0,0,0,1 @ F,0,0,1,0,0,0,1" unit="px" method="auto" mode="F" radius="0" chamfer_steps="1" flexible="false" use_knot_distance="true" apply_no_radius="true" apply_with_radius="true" only_selected="true" hide_knots="false" /><inkscape:path-effect effect="fillet_chamfer" id="path-effect854" is_visible="true" lpeversion="1" satellites_param="F,0,0,1,0,27.900203,0,1 @ F,0,0,1,0,0,0,1 @ F,0,0,1,0,27.900203,0,1 @ F,0,0,1,0,27.900203,0,1 @ F,0,0,1,0,0,0,1 @ F,0,1,1,0,23.18886,0,1 | F,0,0,1,0,27.900203,0,1 @ F,0,0,1,0,27.900203,0,1 @ F,0,0,1,0,0,0,1 @ F,0,0,1,0,0,0,1 @ F,0,0,1,0,27.900203,0,1 @ F,0,0,1,0,0,0,1 @ F,0,0,1,0,0,0,1 @ F,0,0,1,0,27.900203,0,1 @ F,0,0,1,0,27.900203,0,1 @ F,0,0,1,0,0,0,1 @ F,0,0,1,0,0,0,1 @ F,0,0,1,0,0,0,1 @ F,0,0,1,0,0,0,1" unit="px" method="auto" mode="F" radius="0" chamfer_steps="1" flexible="false" use_knot_distance="true" apply_no_radius="true" apply_with_radius="true" only_selected="true" hide_knots="false" /><inkscape:path-effect effect="fillet_chamfer" id="path-effect853" is_visible="true" lpeversion="1" satellites_param="F,0,0,1,0,31.950633,0,1 @ F,0,0,1,0,28.948477,0,1 @ F,0,0,1,0,0,0,1 @ F,0,0,1,0,0,0,1 @ F,0,0,1,0,49.900276,0,1 @ F,0,0,1,0,0,0,1 @ F,0,0,1,0,0,0,1 @ F,0,0,1,0,0,0,1 @ F,0,0,1,0,16.584156,0,1 @ F,0,0,1,0,44.403538,0,1 @ F,0,0,1,0,0,0,1 @ F,0,0,1,0,0,0,1 @ F,0,0,1,0,0,0,1 @ F,0,0,1,0,0,0,1 @ F,0,0,1,0,0,0,1 @ F,0,0,1,0,42.596257,0,1 @ F,0,0,1,0,30.185399,0,1 @ F,0,0,1,0,0,0,1" unit="px" method="auto" mode="F" radius="0" chamfer_steps="1" flexible="false" use_knot_distance="true" apply_no_radius="true" apply_with_radius="true" only_selected="true" hide_knots="true" /><inkscape:path-effect effect="spiro" id="path-effect852" is_visible="true" lpeversion="1" /><inkscape:path-effect effect="spiro" id="path-effect850" is_visible="true" lpeversion="1" /><inkscape:path-effect effect="spiro" id="path-effect851" is_visible="true" lpeversion="1" />
  <svg:style type="text/css" id="style2">
   
    .fil0 {fill:#EF7F1A;fill-rule:nonzero}
   
  </svg:style>
 <inkscape:path-effect effect="spiro" id="path-effect1214" is_visible="true" lpeversion="1" /><inkscape:path-effect effect="spiro" id="path-effect1195" is_visible="true" lpeversion="1" /><inkscape:path-effect effect="spiro" id="path-effect992" is_visible="true" lpeversion="1" /><inkscape:path-effect effect="spiro" id="path-effect1060" is_visible="true" lpeversion="1" /><inkscape:path-effect effect="spiro" id="path-effect1047" is_visible="true" lpeversion="1" /><inkscape:path-effect effect="spiro" id="path-effect1085" is_visible="true" lpeversion="1" /><inkscape:path-effect effect="spiro" id="path-effect1286" is_visible="true" lpeversion="1" /><inkscape:path-effect effect="spiro" id="path-effect1305" is_visible="true" lpeversion="1" /></svg:defs>
 
<svg:g id="path849"><svg:path style="color:#000000;clip-rule:nonzero;fill:#1a5fb4;fill-rule:nonzero;stroke-linecap:round;stroke-linejoin:round;-inkscape-stroke:none;shape-rendering:auto" d="M 283.29297,74.205078 C 273.04121,74.631358 262.9446,78.822315 256.47266,86.646484 207.23482,146.17189 160.25726,207.56479 115.67188,270.65039 78.927657,322.64122 43.264014,376.52317 13.402344,434.48242 c -13.14655556,25.51647 -25.075412,51.6574 -35.734375,78.3086 -5.8559,14.64183 -5.6239,22.59574 0.498047,36.83984 l 36.15625,84.12305 c 8.034194,18.69337 29.251522,27.44558 47.984375,20.4707 24.345473,-9.06465 49.676269,-15.54274 75.380859,-19.27539 26.57142,-3.85853 54.19379,-4.53704 82.52734,-4.34375 -4.16616,52.54738 -10.83847,104.89709 -20,156.80469 -1.70119,9.63865 0.79307,22.08344 8.96875,30.75195 8.17569,8.66851 20.51914,11.90051 30.26563,10.73242 L 352.5332,815.3418 c 20.04559,-2.40241 36.01462,-25.96148 31.03321,-45.38086 -11.7401,-45.76719 -19.43421,-92.58737 -23.00391,-139.70899 14.65514,-0.95284 29.38774,-2.26281 44.26953,-4.53711 23.70483,-3.62266 47.08246,-9.28577 69.81641,-16.90625 18.06728,-6.05619 25.84455,-16.00957 28.26953,-34.40039 l 14.43555,-109.48437 c 1.13993,-8.64514 -0.82586,-23.59462 -13.70508,-32.6836 -12.87922,-9.08898 -27.43515,-5.97426 -35.18946,-2.08398 -33.39248,16.75276 -68.31444,30.45808 -104.13476,41.13281 4.89741,-39.97194 12.70264,-79.58906 23.49805,-118.37109 2.56554,-9.21661 1.51285,-22.35929 -6.55274,-32.08985 -8.06559,-9.73055 -20.92049,-13.23294 -30.5,-12.35742 l -93.85937,8.57813 c 16.38805,-16.66622 33.81897,-32.27023 52.20117,-46.625 23.09962,-18.03863 47.71423,-34.15528 73.48437,-48.11914 8.56479,-4.64094 16.67405,-14.17763 18.48633,-25.8418 1.81228,-11.66417 -3.10317,-23.38968 -9.98242,-30.41016 L 311.04492,84.355469 c -7.09256,-7.238177 -17.5002,-10.576671 -27.75195,-10.150391 z m 3.13086,70.751952 39.89648,40.71484 c -18.70712,11.49633 -36.8276,23.94611 -54.13672,37.4629 -54.34494,42.43828 -100.92973,94.29567 -137.97461,152.14257 -22.97631,35.87835 -42.137917,74.11168 -57.457027,113.83008 -7.113122,-1.18633 -14.18497,-2.5663 -21.251953,-3.99414 3.694831,-7.74297 7.309061,-15.52602 11.238281,-23.15234 C 94.61748,407.84952 128.65203,356.24242 164.66992,305.2793 203.40765,250.46777 244.09158,197.04282 286.42383,144.95703 Z m -67.02344,214.53906 c 3.88059,45.54558 5.83749,91.25176 5.93359,136.96289 -28.90814,1.94743 -57.94864,1.83932 -86.86132,-0.13281 12.85076,-30.82931 28.26692,-60.58883 46.26367,-88.6914 10.67165,-16.66418 22.30855,-32.69487 34.66406,-48.13868 z m 101.83008,11.92383 c -8.87611,37.87469 -15.21875,76.3299 -18.94336,115.04688 -5.64207,1.08278 -11.28267,2.17268 -16.95117,3.10156 -0.23099,-38.18695 -1.8682,-76.35487 -4.64844,-114.44141 z m 130.48437,132.32813 -6.78906,51.49023 c -16.10593,4.84644 -32.53679,8.62391 -49.1582,11.16406 -12.24003,1.87057 -24.75201,2.93046 -37.39063,3.67188 -0.009,-11.68429 0.23207,-23.36543 0.73242,-35.04102 31.54834,-8.27302 62.51506,-18.69967 92.60547,-31.28515 z m -416.302731,26.5664 c 0.0027,0.0442 -0.08249,0.30618 -0.08789,0.35157 l -0.03125,-0.0723 c 0.03813,-0.0938 0.08098,-0.18554 0.11914,-0.2793 z m 263.158201,17.81641 c -0.18893,7.6513 -0.20385,15.30447 -0.18945,22.95898 -4.77699,-0.0712 -9.63735,-0.18407 -14.45703,-0.2832 0.28384,-6.85272 0.45673,-13.70871 0.6582,-20.56445 3.356,-0.49749 6.73131,-0.84963 10.08008,-1.39649 1.30729,-0.21348 2.60221,-0.49389 3.9082,-0.71484 z m -180.9375,6.67187 c 35.46855,3.27752 71.16071,3.93976 106.71875,1.79688 -0.15267,4.44943 -0.27035,8.89957 -0.45898,13.34766 -31.00055,-0.0665 -62.63431,0.94835 -94.82617,5.62304 -6.01641,0.87367 -11.9969,1.96987 -17.96875,3.09961 1.99304,-8.00396 4.19768,-15.95465 6.53515,-23.86719 z m 162.66016,76.75782 c 6.73473,0.12476 13.43596,0.27265 20.24023,0.32226 3.09179,42.72644 9.33791,85.2164 18.69727,127.02149 l -54.53125,6.53711 c 6.96102,-44.3992 12.14105,-89.07306 15.59375,-133.88086 z" id="path8258" /></svg:g></svg:svg>
